!!!OTL: ICH ARMES KAEUZLEIN KLEINE
!!!ARE: Europa, Mitteleuropa, Deutschland
!!!SCT: E0432
!!!YEM: Copyright 1995, estate of Helmut Schaffrath.
**kern
*ICvox
*Ivox
*M6/4
*k[b-]
*F:
{4f
=1
2f
4f
2a
4a
=2
2.f
2g}
{8a
8b-
=3
2cc
4b-
2a
4g
=4
1f
4r}
{4f
=5
2f
4a
2g
4g
=6
4.c
8d
4e
2f}
{4f
=7
4a
4cc
4b-
2a
4g
=8
1f
4r}
==
!!!AGN: Liebes - Lied
!!!ONB: ESAC (Essen Associative Code) Database: ERK1
!!!AMT: compound duple
!!!AIN: vox
!!!EED: Helmut Schaffrath
!!!EEV: 1.0
*-
